img/icons/services/dog_daycare_24x.svg

<svg width="63" height="63" viewBox="0 0 63 63" fill="none" xmlns="http://www.w3.org/2000/svg">
<path d="M43.5098 37.4062V47.25L44.4941 51.1875L47.4473 52.1719L46.4629 56.1094H41.541L39.5723 47.25V41.3438L43.5098 37.4062Z" fill="#DBDBDB"/>
<path d="M15.75 55.125H10.918C9.91516 55.125 8.93216 54.8457 8.07914 54.3185C7.22611 53.7912 6.53678 53.0369 6.08838 52.1399C3.52768 47.0207 2.5021 41.2702 3.13525 35.5815L3.15125 35.4375C3.42687 35.547 3.69512 35.6688 3.95844 35.7993C5.16854 36.402 6.25461 37.2268 7.16012 38.2307C8.26572 39.455 9.07601 40.9165 9.52877 42.5029C9.69056 43.0681 9.96802 43.5937 10.3436 44.0461C10.7191 44.4985 11.1846 44.868 11.7104 45.1311L12.0106 45.2812L13.9794 52.1719L14.57 53.1562L15.75 55.125Z" fill="#DBDBDB"/>
<path d="M14.57 53.1563H11.9023C10.8995 53.1563 9.91651 52.877 9.06349 52.3498C8.21047 51.8226 7.52113 51.0682 7.07273 50.1712C5.01105 46.049 3.93763 41.5034 3.9375 36.8944C3.9375 36.5302 3.94365 36.1648 3.95842 35.7993C5.16853 36.4021 6.2546 37.2269 7.1601 38.2307C8.2657 39.4551 9.07599 40.9166 9.52875 42.5029C9.69054 43.0682 9.968 43.5937 10.3436 44.0462C10.7191 44.4986 11.1845 44.8681 11.7104 45.1312L12.0106 45.2813L13.9794 52.1719L14.57 53.1563Z" fill="#EAEAE8"/>
<path d="M55.3228 9.84375V14.7656L52.3696 16.7344L49.355 17.3373L47.4478 17.7188L47.177 18.6662L46.0746 22.525L45.8038 23.4724C45.7952 23.502 45.7866 23.5315 45.7805 23.5622C45.7007 23.8559 45.6476 24.1561 45.6217 24.4593C45.5963 24.7519 45.5955 25.0462 45.6193 25.339C45.6316 25.4855 45.6488 25.6307 45.6734 25.7759C46.1887 28.8706 45.8056 32.0482 44.5697 34.9318L43.5103 37.4062L39.5728 41.3438V47.25L40.439 51.1481L43.5103 52.1719L42.5259 56.1094H37.604L34.6509 45.2812L32.9578 46.9744C31.4711 48.4613 29.7543 49.6987 27.8735 50.6387L26.7759 51.1875H27.8476C28.6076 51.1878 29.3363 51.4899 29.8737 52.0272C30.411 52.5646 30.7131 53.2933 30.7134 54.0533V56.1094H16.6823C16.3273 56.1095 15.9757 56.0396 15.6477 55.9038C15.3197 55.768 15.0216 55.5689 14.7705 55.3178C14.5195 55.0668 14.3204 54.7687 14.1846 54.4407C14.0487 54.1127 13.9789 53.7611 13.979 53.406V52.1719L12.0103 45.2812L13.1903 40.9525C14.3395 36.7401 16.8598 33.0309 20.3528 30.411L27.1905 25.2824C29.5067 23.5451 31.3868 21.2926 32.6821 18.7031L34.6509 16.7344L34.9622 15.8017V15.8004L37.604 7.875L42.5259 5.90625H47.4478L49.4165 9.84375H55.3228Z" fill="#EAEAE8"/>
<path d="M45.4785 11.8125C46.0222 11.8125 46.4629 11.3718 46.4629 10.8281C46.4629 10.2845 46.0222 9.84375 45.4785 9.84375C44.9349 9.84375 44.4941 10.2845 44.4941 10.8281C44.4941 11.3718 44.9349 11.8125 45.4785 11.8125Z" fill="#8F563B"/>
<path d="M30.0088 52.172H23.9451C23.684 52.172 23.4336 52.0683 23.249 51.8837C23.0644 51.6991 22.9607 51.4487 22.9607 51.1876C22.9607 50.9265 23.0644 50.6762 23.249 50.4916C23.4336 50.3069 23.684 50.2032 23.9451 50.2032C24.6133 50.2055 25.2688 50.0206 25.8373 49.6693C26.4058 49.3181 26.8645 48.8147 27.1615 48.216C27.5174 47.4999 27.6264 46.6861 27.4716 45.9015C27.2928 44.9949 26.9082 44.1415 26.3473 43.4072C25.7864 42.6729 25.0643 42.0772 24.2367 41.6662L23.3827 41.2405C23.1491 41.1238 22.9713 40.9191 22.8886 40.6714C22.8059 40.4237 22.8249 40.1533 22.9416 39.9196C23.0583 39.6859 23.263 39.5082 23.5107 39.4255C23.7584 39.3427 24.0289 39.3618 24.2625 39.4785L25.1165 39.9054C26.2131 40.4496 27.17 41.2386 27.9131 42.2115C28.6562 43.1845 29.1657 44.3152 29.4022 45.5164C29.5651 46.3381 29.5412 47.186 29.3323 47.9972C29.1233 48.8085 28.7347 49.5624 28.1951 50.2032L26.7764 51.1876H27.8481C28.2578 51.1871 28.6628 51.2748 29.0356 51.4446C29.4084 51.6145 29.7403 51.8625 30.0088 52.172V52.172Z" fill="#DBDBDB"/>
<path d="M52.3691 9.84375C52.3691 10.627 52.6803 11.3781 53.2341 11.9319C53.7879 12.4857 54.539 12.7969 55.3223 12.7969V9.84375H52.3691Z" fill="#8F563B"/>
<path d="M49.356 17.3373L47.4487 17.7187L47.178 18.6662L44.1843 17.6683C43.9883 17.603 43.8178 17.4776 43.697 17.31C43.5762 17.1424 43.5112 16.941 43.5112 16.7344V14.7656C43.5112 14.5046 43.6149 14.2542 43.7996 14.0696C43.9842 13.885 44.2345 13.7812 44.4956 13.7812C44.7567 13.7812 45.0071 13.885 45.1917 14.0696C45.3763 14.2542 45.48 14.5046 45.48 14.7656V16.0244L49.1788 17.2573C49.2404 17.2779 49.2997 17.3047 49.356 17.3373V17.3373Z" fill="#DBDBDB"/>
<path d="M46.7883 23.454C46.7929 23.7149 46.6937 23.967 46.5126 24.1548C46.3315 24.3426 46.0832 24.4508 45.8224 24.4556L45.6218 24.4593L45.1173 24.4692C45.0398 24.4704 44.9623 24.4716 44.886 24.4716C42.579 24.4769 40.3189 23.8212 38.3729 22.5822C36.4269 21.3432 34.8766 19.5726 33.9053 17.4801L34.6509 16.7345L34.9622 15.8018C34.9827 15.8081 35.0029 15.8154 35.0225 15.8239C35.0463 15.8328 35.0693 15.8435 35.0914 15.8559C35.1082 15.8626 35.1242 15.8709 35.1394 15.8805C35.1591 15.8916 35.1776 15.9027 35.196 15.915C35.3551 16.0211 35.48 16.1711 35.5553 16.3469C36.334 18.1763 37.6343 19.7357 39.294 20.8306C40.9536 21.9254 42.899 22.507 44.8872 22.5029C44.9512 22.5029 45.0152 22.5017 45.0804 22.5004L45.7855 22.4881C45.8832 22.4854 45.9807 22.4978 46.0746 22.525C46.277 22.5838 46.4553 22.7056 46.5836 22.8726C46.712 23.0397 46.7837 23.2434 46.7883 23.454V23.454Z" fill="#5D62B5"/>
<path d="M49.417 24.6094C49.4168 24.9985 49.3012 25.3788 49.0849 25.7022C48.8686 26.0257 48.5613 26.2777 48.2018 26.4266C47.8423 26.5754 47.4467 26.6143 47.0651 26.5383C46.6835 26.4623 46.3329 26.2749 46.0578 25.9998C45.7827 25.7247 45.5953 25.3741 45.5193 24.9925C45.4433 24.6109 45.4822 24.2153 45.631 23.8558C45.7799 23.4963 46.0319 23.189 46.3554 22.9727C46.6788 22.7564 47.0591 22.6408 47.4482 22.6406C47.9704 22.6406 48.4711 22.848 48.8403 23.2173C49.2096 23.5865 49.417 24.0872 49.417 24.6094Z" fill="#F3AF3E"/>
<path d="M48.2343 24.6094C48.2343 25.0281 48.1008 25.4359 47.8532 25.7736C47.6056 26.1113 47.2568 26.3612 46.8574 26.4871C46.458 26.3612 46.1092 26.1113 45.8616 25.7736C45.614 25.4359 45.4805 25.0281 45.4805 24.6094C45.4805 24.1907 45.614 23.7828 45.8616 23.4452C46.1092 23.1075 46.458 22.8576 46.8574 22.7317C47.2568 22.8576 47.6056 23.1075 47.8532 23.4452C48.1008 23.7828 48.2343 24.1907 48.2343 24.6094V24.6094Z" fill="#EA9D2D"/>
<path d="M56.1094 56.1094C58.284 56.1094 60.0469 54.3465 60.0469 52.1719C60.0469 49.9973 58.284 48.2344 56.1094 48.2344C53.9348 48.2344 52.1719 49.9973 52.1719 52.1719C52.1719 54.3465 53.9348 56.1094 56.1094 56.1094Z" fill="#5D62B5"/>
<path d="M60.0469 52.1719C60.0469 53.2162 59.632 54.2177 58.8936 54.9561C58.1552 55.6945 57.1537 56.1094 56.1094 56.1094C56.7205 54.8868 57.0387 53.5387 57.0387 52.1719C57.0387 50.805 56.7205 49.457 56.1094 48.2344C57.1537 48.2344 58.1552 48.6492 58.8936 49.3876C59.632 50.1261 60.0469 51.1276 60.0469 52.1719Z" fill="#29C3BE"/>
<path d="M41.5421 11.8125V15.1545C41.5414 16.1986 41.1263 17.1998 40.3881 17.9383C39.6499 18.6767 38.6488 19.0921 37.6046 19.0932C37.4964 19.0932 37.3881 19.0883 37.2798 19.0796C36.6149 19.0246 35.975 18.801 35.4206 18.43L34.1052 17.5539C34.0512 17.5179 34.0009 17.4767 33.9551 17.4308L34.6515 16.7344L34.9628 15.8017C34.9833 15.808 35.0034 15.8154 35.0231 15.8238C35.0469 15.8327 35.0699 15.8434 35.092 15.8558C35.1087 15.8625 35.1248 15.8708 35.14 15.8804C35.1597 15.8915 35.1782 15.9026 35.1966 15.9149L36.512 16.7922C36.8085 16.9898 37.1531 17.1032 37.509 17.1204C37.8649 17.1376 38.2188 17.0579 38.533 16.8898C38.8472 16.7218 39.1099 16.4716 39.2931 16.166C39.4763 15.8604 39.5732 15.5108 39.5734 15.1545V11.8125C39.5734 11.5514 39.6771 11.301 39.8617 11.1164C40.0463 10.9318 40.2967 10.8281 40.5578 10.8281C40.8188 10.8281 41.0692 10.9318 41.2538 11.1164C41.4384 11.301 41.5421 11.5514 41.5421 11.8125V11.8125Z" fill="#C3C3C3"/>
</svg>

<svg width="63" height="63" fill="none" xmlns="http://www.w3.org/2000/svg">
  <path d="M43.51 37.406v9.844l.984 3.938 2.953.984-.984 3.937H41.54l-1.969-8.859v-5.906l3.938-3.938zM15.75 55.125h-4.832a5.4 5.4 0 01-4.83-2.985A29.675 29.675 0 013.135 35.58l.016-.144a10.785 10.785 0 014.01 2.794 10.795 10.795 0 012.368 4.272 4.245 4.245 0 002.181 2.628l.3.15 1.97 6.89.59.985 1.18 1.969z" fill="#DBDBDB"/>
  <path d="M14.57 53.156h-2.668a5.4 5.4 0 01-4.83-2.985A29.683 29.683 0 013.959 35.8a10.796 10.796 0 015.57 6.704 4.245 4.245 0 002.182 2.628l.3.15 1.97 6.89.59.985z" fill="#EAEAE8"/>
  <path d="M55.323 9.844v4.922l-2.953 1.968-3.015.603-1.907.382-.271.947-1.102 3.859-.271.947a5.065 5.065 0 00-.182.987 5.252 5.252 0 00.051 1.317 16.403 16.403 0 01-1.103 9.156l-1.06 2.474-3.937 3.938v5.906l.866 3.898 3.071 1.024-.984 3.937h-4.922l-2.953-10.828-1.693 1.693a19.548 19.548 0 01-5.084 3.665l-1.098.548h1.072a2.867 2.867 0 012.865 2.866v2.056h-14.03a2.703 2.703 0 01-2.704-2.703v-1.234l-1.969-6.89 1.18-4.33a19.638 19.638 0 017.163-10.541l6.837-5.129a18.659 18.659 0 005.492-6.579l1.969-1.969.311-.932V15.8l2.642-7.925 4.922-1.969h4.922l1.968 3.938h5.907z" fill="#EAEAE8"/>
  <path d="M45.478 11.813a.984.984 0 100-1.97.984.984 0 000 1.97z" fill="#8F563B"/>
  <path d="M30.009 52.172h-6.064a.984.984 0 110-1.969 3.576 3.576 0 003.216-1.987c.356-.716.465-1.53.31-2.315a6.032 6.032 0 00-3.234-4.235l-.854-.425a.985.985 0 01.88-1.763l.853.427a7.986 7.986 0 014.286 5.611 5.59 5.59 0 01-1.207 4.687l-1.419.985h1.072a2.857 2.857 0 012.16.984z" fill="#DBDBDB"/>
  <path d="M52.37 9.844a2.953 2.953 0 002.952 2.953V9.844H52.37z" fill="#8F563B"/>
  <path d="M49.356 17.337l-1.907.382-.271.947-2.994-.998a.984.984 0 01-.673-.934v-1.968a.984.984 0 011.969 0v1.258l3.699 1.233c.061.02.12.048.177.08z" fill="#DBDBDB"/>
  <path d="M46.788 23.454a.985.985 0 01-.966 1.002l-.2.003-.505.01a12.075 12.075 0 01-11.212-6.99l.746-.744.311-.933a.58.58 0 01.06.022c.024.009.047.02.07.032a.861.861 0 01.105.06c.158.105.283.255.358.43A10.12 10.12 0 0045.08 22.5l.706-.012a.99.99 0 011.003.966z" fill="#5D62B5"/>
  <path d="M49.417 24.61a1.968 1.968 0 11-3.935-.003 1.968 1.968 0 013.935.002z" fill="#F3AF3E"/>
  <path d="M48.234 24.61a1.969 1.969 0 01-1.377 1.877 1.969 1.969 0 010-3.755 1.969 1.969 0 011.377 1.877z" fill="#EA9D2D"/>
  <path d="M56.11 56.11a3.938 3.938 0 100-7.876 3.938 3.938 0 000 7.875z" fill="#5D62B5"/>
  <path d="M60.047 52.172a3.937 3.937 0 01-3.938 3.937 8.807 8.807 0 000-7.875 3.937 3.937 0 013.938 3.938z" fill="#29C3BE"/>
  <path d="M41.542 11.813v3.341a3.942 3.942 0 01-4.262 3.926 3.925 3.925 0 01-1.86-.65l-1.315-.876a.98.98 0 01-.15-.123l.697-.697.31-.932a.612.612 0 01.13.054.861.861 0 01.105.06l1.315.876a1.97 1.97 0 003.061-1.638v-3.341a.984.984 0 111.97 0z" fill="#C3C3C3"/>
</svg>
